svg/企微机器人.svg

<svg width="24" height="24" viewBox="0 0 24 24" fill="none" xmlns="http://www.w3.org/2000/svg">
<rect width="24" height="24" fill="#F5F5F5"/>
<rect width="793" height="822" transform="translate(-370.404 -49.5)" fill="white"/>
<path d="M12.6814 16.1956C12.6678 16.7572 12.9349 17.1456 13.4816 17.3741C13.2815 17.4485 13.0899 17.5079 12.8961 17.5613C12.2132 17.7495 11.5107 17.8643 10.8014 17.9034C9.73974 17.9703 8.67397 17.8648 7.64879 17.5915C7.62584 17.5846 7.60169 17.5822 7.57777 17.5845C7.55384 17.5867 7.53063 17.5935 7.50949 17.6045L5.18957 18.7317C5.10461 18.7824 5.01351 18.823 4.9183 18.8524C4.80659 18.8792 4.6895 18.8769 4.57902 18.8458C4.46854 18.8147 4.36864 18.756 4.28956 18.6756C4.21048 18.5952 4.15507 18.496 4.12899 18.3883C4.10291 18.2806 4.10711 18.1681 4.14115 18.0624C4.18245 17.8887 4.20907 17.712 4.22075 17.5341C4.2815 17.0852 4.33492 16.6354 4.39776 16.1865C4.40444 16.156 4.40232 16.1243 4.39161 16.0949C4.3809 16.0654 4.36202 16.0394 4.33701 16.0195C3.67639 15.4426 3.1044 14.7785 2.63818 14.047C2.15551 13.285 1.85368 12.43 1.7542 11.5431C1.54472 9.64306 2.15115 7.98757 3.42999 6.55549C4.34853 5.53502 5.49017 4.82049 6.79309 4.33944C7.51541 4.0748 8.26891 3.89667 9.03656 3.80908C9.62735 3.74167 10.2232 3.72516 10.8171 3.75977C12.5547 3.86041 14.1519 4.35353 15.5784 5.32167C16.8196 6.16401 17.7517 7.24486 18.3016 8.61656C18.5239 9.17762 18.6597 9.76686 18.7048 10.3656C18.7247 10.6082 18.7226 10.8507 18.7195 11.0933C18.7221 11.159 18.7151 11.2247 18.6985 11.2885C18.2545 10.8678 17.7559 10.8064 17.2102 11.0621C17.1914 11.048 17.1998 11.0299 17.1998 11.0138C17.2316 10.0462 16.9691 9.09077 16.4446 8.26432C15.9337 7.45254 15.228 6.77 14.3865 6.2737C13.5074 5.73874 12.5218 5.38603 11.4926 5.23814C10.6854 5.11756 9.86399 5.11315 9.05541 5.22506C8.29434 5.32415 7.55297 5.53209 6.85594 5.84197C5.50692 6.4458 4.43651 7.35154 3.75153 8.63467C3.32988 9.43173 3.1485 10.3262 3.22785 11.217C3.32421 12.4499 3.86988 13.4864 4.73292 14.3831C5.00369 14.6604 5.29835 14.9153 5.61375 15.1449C5.72612 15.2174 5.81057 15.3233 5.8541 15.4465C5.89763 15.5696 5.89783 15.703 5.85465 15.8263C5.82951 15.9108 5.80857 15.9963 5.78657 16.0809C5.69754 16.412 5.60957 16.7431 5.51949 17.0732C5.50771 17.0971 5.50451 17.1241 5.51038 17.1499C5.51626 17.1758 5.53088 17.199 5.55196 17.2161C5.60747 17.2573 5.64832 17.2161 5.69126 17.1919C6.20028 16.9041 6.70616 16.6143 7.21833 16.3315C7.32728 16.2683 7.4487 16.2275 7.5749 16.2118C7.7011 16.196 7.82933 16.2056 7.95148 16.2399C8.76607 16.4631 9.61099 16.5673 10.4578 16.5488C11.1823 16.5309 11.9008 16.4178 12.5934 16.2127C12.6206 16.1996 12.651 16.1937 12.6814 16.1956Z" fill="#A3A3A3"/>
<path d="M14.402 17.0189C14.0846 17.0181 13.7805 16.8967 13.556 16.6812C13.3315 16.4657 13.2049 16.1736 13.2038 15.8686C13.2096 15.623 13.2977 15.3857 13.4551 15.1921C13.6125 14.9984 13.8307 14.8587 14.0773 14.7938C14.2344 14.7526 14.3988 14.7395 14.558 14.6932C15.1987 14.5287 15.7806 14.1995 16.2412 13.7411C16.2705 13.712 16.2988 13.6818 16.3302 13.6536C16.3566 13.6281 16.3881 13.6079 16.4227 13.5941C16.4573 13.5803 16.4944 13.5732 16.5318 13.5732C16.5693 13.5732 16.6063 13.5803 16.6409 13.5941C16.6755 13.6079 16.707 13.6281 16.7334 13.6536C16.7609 13.6782 16.7826 13.708 16.7973 13.7412C16.812 13.7743 16.8193 13.8101 16.8187 13.8461C16.8181 13.8822 16.8097 13.9177 16.7939 13.9504C16.7781 13.9831 16.7554 14.0123 16.7271 14.036C16.4854 14.2587 16.2714 14.5076 16.0893 14.7777C15.832 15.1658 15.6592 15.5998 15.5813 16.0538C15.5343 16.3223 15.3902 16.5662 15.1745 16.7427C14.9588 16.9192 14.6853 17.017 14.402 17.0189Z" fill="#A3A3A3"/>
<path d="M16.5789 12.6467C16.5802 12.3721 16.6858 12.1074 16.876 11.9024C17.0662 11.6974 17.3278 11.5662 17.6116 11.5336C17.8923 11.5034 18.1752 11.5685 18.4111 11.7178C18.647 11.8671 18.821 12.091 18.903 12.3508C18.9679 12.5873 18.9983 12.8318 19.0842 13.0633C19.2836 13.6118 19.6215 14.1042 20.0677 14.4964C20.1225 14.5434 20.1561 14.6091 20.1614 14.6796C20.1667 14.75 20.1432 14.8197 20.0959 14.8738C20.0732 14.9015 20.045 14.9246 20.0128 14.9416C19.9806 14.9587 19.9452 14.9694 19.9087 14.973C19.8722 14.9767 19.8353 14.9733 19.8001 14.9629C19.765 14.9526 19.7324 14.9357 19.7042 14.913C19.5995 14.8275 19.5094 14.7289 19.4078 14.6403C18.8967 14.193 18.2607 13.8989 17.5781 13.7939C17.2965 13.7486 17.0411 13.6081 16.8578 13.3977C16.6746 13.1873 16.5757 12.921 16.5789 12.6467Z" fill="#A3A3A3"/>
<path d="M17.7525 20.2582C17.4704 20.2597 17.197 20.1643 16.9817 19.9892C16.7664 19.814 16.6234 19.5707 16.5784 19.3031C16.451 18.5316 16.0548 17.8244 15.4546 17.2974C15.4133 17.2646 15.3828 17.221 15.3668 17.1719C15.3508 17.1228 15.35 17.0702 15.3645 17.0207C15.3748 16.971 15.4003 16.9254 15.4375 16.8896C15.4748 16.8537 15.5223 16.8293 15.574 16.8194C15.6292 16.8075 15.6868 16.8111 15.74 16.8298C15.7931 16.8486 15.8395 16.8816 15.8735 16.9251C16.1254 17.1835 16.4163 17.4041 16.7366 17.5792C17.1051 17.7852 17.5098 17.9247 17.9306 17.9908C18.212 18.0318 18.4686 18.1688 18.6537 18.3766C18.8387 18.5844 18.9397 18.8492 18.9383 19.1227C18.9369 19.3962 18.8332 19.6601 18.646 19.8662C18.4589 20.0722 18.2009 20.2067 17.919 20.2451C17.8614 20.2542 17.8112 20.2542 17.7525 20.2582Z" fill="#A3A3A3"/>
<path d="M21.1057 14.7451C21.3896 14.749 21.663 14.8494 21.8773 15.0285C22.0917 15.2075 22.2331 15.4537 22.2766 15.7233C22.352 16.2939 21.9865 16.8424 21.4282 16.9733C21.1807 17.0174 20.9359 17.0749 20.6951 17.1453C20.1235 17.3362 19.6103 17.6606 19.2015 18.0893C19.1767 18.1172 19.1462 18.1399 19.1119 18.156C19.0776 18.1722 19.0402 18.1814 19.0021 18.1832C18.964 18.185 18.9259 18.1793 18.8901 18.1664C18.8543 18.1536 18.8217 18.1338 18.7941 18.1084C18.7652 18.0843 18.7418 18.0546 18.7256 18.0212C18.7094 17.9879 18.7006 17.9516 18.6999 17.9148C18.6992 17.878 18.7066 17.8414 18.7216 17.8075C18.7365 17.7736 18.7588 17.7431 18.7868 17.718C18.9527 17.5674 19.1061 17.4045 19.2455 17.2309C19.6026 16.7833 19.8367 16.2565 19.9263 15.6992C19.9733 15.4316 20.1176 15.1888 20.3336 15.014C20.5497 14.8393 20.8233 14.744 21.1057 14.7451Z" fill="#A3A3A3"/>
</svg>

<svg fill="none" viewBox="0 0 24 24"><path fill="#F5F5F5" d="M0 0h24v24H0z"/><path fill="white" d="M-370.404-49.5h793v822h-793z"/><path fill="#A3A3A3" d="M12.681 16.196c-.013.561.254.95.8 1.178-.2.075-.391.134-.585.187a10 10 0 0 1-2.095.342 9.8 9.8 0 0 1-3.152-.311.19.19 0 0 0-.14.013l-2.32 1.127q-.127.076-.27.12a.67.67 0 0 1-.63-.176.6.6 0 0 1-.148-.613q.062-.261.08-.529c.06-.449.114-.899.177-1.348a.17.17 0 0 0-.006-.091.2.2 0 0 0-.055-.075 9.2 9.2 0 0 1-1.699-1.973 5.9 5.9 0 0 1-.884-2.504c-.21-1.9.397-3.555 1.676-4.988.919-1.02 2.06-1.735 3.363-2.216a9.7 9.7 0 0 1 2.244-.53 10.4 10.4 0 0 1 1.78-.05c1.738.101 3.335.595 4.761 1.563 1.242.842 2.174 1.923 2.724 3.295.222.56.358 1.15.403 1.749.02.242.018.485.015.727a.7.7 0 0 1-.021.196c-.445-.421-.943-.483-1.489-.227-.019-.014-.01-.032-.01-.048a4.83 4.83 0 0 0-.755-2.75 6.1 6.1 0 0 0-2.059-1.99 7.7 7.7 0 0 0-2.893-1.036 8.6 8.6 0 0 0-2.438-.013c-.76.1-1.502.307-2.2.617-1.348.604-2.418 1.51-3.103 2.793a4.64 4.64 0 0 0-.524 2.582c.096 1.233.642 2.27 1.505 3.166q.406.416.88.762a.6.6 0 0 1 .241.302.57.57 0 0 1 0 .38q-.035.127-.067.254-.133.497-.268.992a.12.12 0 0 0-.009.077.12.12 0 0 0 .042.066c.055.041.096 0 .14-.024.508-.288 1.014-.578 1.526-.86a.94.94 0 0 1 .733-.092c.815.223 1.66.327 2.507.309a8.2 8.2 0 0 0 2.135-.336.2.2 0 0 1 .088-.017"/><path fill="#A3A3A3" d="M14.402 17.019c-.317 0-.621-.122-.846-.338a1.13 1.13 0 0 1-.352-.812c.006-.246.094-.483.251-.677.158-.194.376-.333.622-.398.157-.041.322-.055.481-.1a3.7 3.7 0 0 0 1.683-.953q.044-.045.09-.087a.28.28 0 0 1 .2-.08.29.29 0 0 1 .266.167.25.25 0 0 1-.07.295 4.2 4.2 0 0 0-.638.742c-.257.388-.43.822-.508 1.276a1.15 1.15 0 0 1-.406.689c-.216.176-.49.274-.773.276M16.579 12.647c.001-.275.107-.54.297-.745s.452-.336.736-.368c.28-.03.563.034.8.184.235.15.409.373.491.633.065.236.095.48.181.712.2.549.538 1.041.984 1.433a.265.265 0 0 1 .028.377.27.27 0 0 1-.187.1.28.28 0 0 1-.205-.06c-.105-.085-.195-.184-.296-.273a3.6 3.6 0 0 0-1.83-.846 1.2 1.2 0 0 1-.72-.396 1.12 1.12 0 0 1-.28-.751M17.753 20.258a1.2 1.2 0 0 1-.771-.269 1.13 1.13 0 0 1-.404-.686 3.4 3.4 0 0 0-1.123-2.006.27.27 0 0 1-.088-.125.26.26 0 0 1-.003-.151.25.25 0 0 1 .073-.131.306.306 0 0 1 .303-.06q.082.03.133.095c.252.258.543.48.864.654.368.206.773.346 1.194.412a1.2 1.2 0 0 1 .723.386c.185.207.286.472.284.746a1.11 1.11 0 0 1-.292.743 1.2 1.2 0 0 1-.727.38c-.058.008-.108.008-.166.012M21.106 14.745c.284.004.557.104.771.284.215.178.356.425.4.694.075.57-.29 1.12-.849 1.25a7 7 0 0 0-.733.172 3.7 3.7 0 0 0-1.494.944.28.28 0 0 1-.199.094.3.3 0 0 1-.208-.075.26.26 0 0 1-.094-.193.25.25 0 0 1 .087-.197q.25-.226.459-.487c.357-.448.59-.975.68-1.532.047-.267.192-.51.408-.685s.49-.27.772-.269"/></svg>
